X:2099 
T:Faagmayd nyn mannaght ec Kione Doolish 
C:Traditional
O:Isle of Man
S:Tom Kermode, Bradda
Z:Clague Collection
B:Kiaull Vannin #99 
M:3/4 
L:1/8
K:D
D D E/F|G3 D E ^G|A3 B D E/F/|G3 A E D-|D3 B AB/c/|d3 e/d/ B A|G3 A/B/ =c B|A3 A E D|D6||
